outputs/icons/enterprise/credit_card_swipe_round.svg

<svg xmlns="http://www.w3.org/2000/svg" width="1200" height="1200" fill="none"><path fill="#000" fill-rule="evenodd" d="M1037.55 577.785c16.545.065 32.395 6.715 44.09 18.505a63.4 63.4 0 0 1 18.36 44.435V987.06a63.4 63.4 0 0 1-18.36 44.435c-11.71 11.795-27.625 18.46-44.19 18.505H459.326c-16.559-.05-32.431-6.71-44.14-18.505a63.37 63.37 0 0 1-18.36-44.435V798.145h62.5v31.495h578.124V640.725H846.045c-6.29-24.385-19.685-46.315-38.475-62.94zm-578.175 377.78v31.495h578.175v-31.495z"/><path fill="#000" fill-rule="evenodd" d="M662.5 200c62.5 0 343.8 346.29 343.8 346.29H818.75l-187.5-157.423-5.86 3.955c70.255 78.917 129.945 152.338 130.86 153.468H600l-80.615-57.96L475 577.785h250c24.86 0 48.73 9.93 66.31 27.635 17.58 17.71 27.44 41.75 27.44 66.795 0 25.05-9.86 49.085-27.44 66.8-17.585 17.705-41.45 27.635-66.31 27.635H287.5c-62.331-.005-186.811-62.59-187.5-62.94V325.928S599.93 200.02 662.5 200M725 609.275c-34.51.01-31.25 28.185-31.25 62.94 0 34.765-3.265 62.98 31.25 62.99 16.57 0 32.47-6.66 44.19-18.455 11.72-11.81 18.31-27.835 18.31-44.535 0-16.695-6.59-32.725-18.31-44.53a62.3 62.3 0 0 0-44.19-18.41"/></svg>

<svg width="1200" height="1200" viewBox="0 0 1200 1200" fill="none" xmlns="http://www.w3.org/2000/svg"><path fill-rule="evenodd" d="M791.31 739.005C773.73 756.715 749.88 766.665 725.015 766.665H287.505C225.004 766.665 100 703.705 100 703.705V325.926C100 325.926 600.015 200 662.515 200C725.015 200 1006.275 546.295 1006.275 546.295H818.77L631.265 388.889L625.405 392.824C696.21 472.354 756.27 546.295 756.27 546.295H600.015L519.405 488.31L475.01 577.78H725.015C749.88 577.78 773.73 587.73 791.31 605.44C808.89 623.15 818.77 647.175 818.77 672.22C818.77 697.27 808.89 721.29 791.31 739.005ZM769.21 627.7C757.49 615.89 741.595 609.26 725.015 609.26C693.295 609.26 693.485 633.05 693.725 663.87C693.745 666.605 693.765 669.39 693.765 672.22C693.765 675.055 693.745 677.84 693.725 680.575C693.485 711.395 693.295 735.185 725.015 735.185C741.595 735.185 757.49 728.55 769.21 716.745C780.935 704.935 787.52 688.92 787.52 672.22C787.52 655.525 780.935 639.51 769.21 627.7ZM807.565 577.785H1037.535C1054.085 577.845 1069.94 584.5 1081.64 596.295C1093.34 608.095 1099.93 624.07 1099.975 640.745V987.045C1099.93 1003.725 1093.33 1019.715 1081.62 1031.51C1069.905 1043.31 1054.035 1049.96 1037.475 1050.005H459.334C442.772 1049.96 426.901 1043.31 415.189 1031.51C403.479 1019.715 396.878 1003.725 396.832 987.045V798.155H459.334V829.635H1037.475V640.745H846.065C839.775 616.35 826.365 594.415 807.565 577.785ZM459.392 987.045H1037.535V955.56H459.392V987.045Z" fill="#1D1E23"/></svg>
